public/icon/tg-w.svg

<svg width="29" height="26" viewBox="0 0 29 26" fill="none" xmlns="http://www.w3.org/2000/svg">
<path d="M27.4386 1.45943C27.1223 1.19368 26.7395 1.01907 26.3314 0.954357C25.9234 0.889641 25.5054 0.937252 25.1223 1.09208L1.74477 10.4492C1.40399 10.5908 1.11279 10.8301 0.907937 11.137C0.70308 11.444 0.59375 11.8047 0.59375 12.1737C0.59375 12.5427 0.70308 12.9035 0.907937 13.2104C1.11279 13.5173 1.40399 13.7566 1.74477 13.8982L3.25497 14.5207C3.50397 14.626 3.7846 14.6282 4.03523 14.5268C4.28586 14.4254 4.486 14.2287 4.59171 13.9798C4.64356 13.8559 4.67044 13.723 4.6708 13.5886C4.67116 13.4543 4.64499 13.3212 4.5938 13.197C4.5426 13.0728 4.46739 12.96 4.37247 12.8649C4.27756 12.7699 4.16481 12.6945 4.04069 12.6431L2.91824 12.1839L25.8876 3.00025C25.9229 2.97859 25.9635 2.96713 26.0049 2.96713C26.0464 2.96713 26.087 2.97859 26.1223 3.00025C26.1556 3.02853 26.1807 3.0652 26.1951 3.10647C26.2094 3.14774 26.2125 3.1921 26.2039 3.23494L22.0101 22.8064C21.9963 22.8761 21.9646 22.941 21.9181 22.9947C21.8715 23.0484 21.8118 23.089 21.7448 23.1125C21.679 23.1386 21.6074 23.1467 21.5375 23.1359C21.4675 23.1252 21.4017 23.0959 21.3468 23.0513L13.1835 16.6839L21.1733 8.61249C21.344 8.43541 21.445 8.20265 21.4577 7.95703C21.4704 7.71141 21.3939 7.46948 21.2424 7.27574C21.0909 7.08201 20.8745 6.94952 20.6331 6.90265C20.3917 6.85578 20.1414 6.89768 19.9284 7.02065L8.21415 13.9594C8.08404 14.0182 7.96772 14.1037 7.87271 14.2103C7.7777 14.3168 7.70611 14.4422 7.66258 14.5781C7.61904 14.7141 7.60453 14.8577 7.61998 14.9997C7.63542 15.1416 7.68048 15.2787 7.75224 15.4022C7.82401 15.5256 7.92088 15.6326 8.03659 15.7162C8.1523 15.7999 8.28427 15.8583 8.42398 15.8878C8.56369 15.9172 8.70803 15.917 8.84765 15.8872C8.98728 15.8573 9.11909 15.7985 9.23456 15.7145L14.1631 12.8064L11.7652 15.2451C11.5458 15.4513 11.3747 15.7033 11.2642 15.9833C11.1538 16.2633 11.1066 16.5643 11.1261 16.8647C11.1456 17.1651 11.2313 17.4574 11.3771 17.7208C11.5228 17.9841 11.7251 18.212 11.9693 18.388L20.1325 24.6635C20.5622 24.9951 21.0898 25.1746 21.6325 25.1737C21.9215 25.1716 22.208 25.1199 22.4794 25.0206C22.8692 24.8807 23.2166 24.643 23.4882 24.3303C23.7597 24.0177 23.9465 23.6405 24.0305 23.2349L28.1937 3.68392C28.2821 3.27952 28.2585 2.85867 28.1254 2.4667C27.9924 2.07472 27.7549 1.72647 27.4386 1.45943Z" fill="url(#paint0_linear_184_1885)"/>
<defs>
<linearGradient id="paint0_linear_184_1885" x1="0.59375" y1="13.05" x2="28.2462" y2="13.05" gradientUnits="userSpaceOnUse">
<stop stop-color="#3068D0"/>
<stop offset="0.5" stop-color="#836BAF"/>
<stop offset="1" stop-color="#978262"/>
</linearGradient>
</defs>
</svg>

<svg width="29" height="26" fill="none" xmlns="http://www.w3.org/2000/svg"><path d="M27.439 1.46a2.275 2.275 0 0 0-2.317-.368L1.745 10.45a1.868 1.868 0 0 0 0 3.45l1.51.622a1.02 1.02 0 0 0 1.416-.932 1.02 1.02 0 0 0-.63-.946l-1.123-.46L25.888 3a.224.224 0 0 1 .234 0 .245.245 0 0 1 .082.235L22.01 22.806a.409.409 0 0 1-.265.306.398.398 0 0 1-.398-.06l-8.164-6.368 7.99-8.072a1.02 1.02 0 0 0-1.245-1.591L8.214 13.959a1.02 1.02 0 1 0 1.02 1.755l4.93-2.908-2.399 2.44a2.041 2.041 0 0 0 .204 3.142l8.164 6.275a2.449 2.449 0 0 0 2.346.358 2.418 2.418 0 0 0 1.552-1.786l4.163-19.551a2.275 2.275 0 0 0-.755-2.225Z" fill="url(#a)"/><defs><linearGradient id="a" x1=".594" y1="13.05" x2="28.246" y2="13.05" gradientUnits="userSpaceOnUse"><stop stop-color="#3068D0"/><stop offset=".5" stop-color="#836BAF"/><stop offset="1" stop-color="#978262"/></linearGradient></defs></svg>
